X: 31476
T: Paddy The Bat, Mind Where You're At
R: polka
M: 2/4
K: Dmajor
|:FG/F/ DE|FA D2|EF/E/ DE|FG A2|
FG/F/ DE|FA D2|ED/E/ FE|1 D2 DE:|2 D2 D2||
|:dd BB|dd F2|EF/E/ DE|FG A2|
dd BB|dd F2|ED/E/ FE|1 D2 D2:|2 D2 DE||

